icons/line/arrow-circle-left.svg

<svg width="24" height="24" viewBox="0 0 24 24" fill="none" xmlns="http://www.w3.org/2000/svg">
<path fill-rule="evenodd" clip-rule="evenodd" d="M4 12C4 7.58172 7.58172 4 12 4C16.4183 4 20 7.58172 20 12C20 16.4183 16.4183 20 12 20C7.58172 20 4 16.4183 4 12ZM12 2C6.47715 2 2 6.47715 2 12C2 17.5228 6.47715 22 12 22C17.5228 22 22 17.5228 22 12C22 6.47715 17.5228 2 12 2ZM8.29289 11.2929L11.2929 8.29289C11.6834 7.90237 12.3166 7.90237 12.7071 8.29289C13.0976 8.68342 13.0976 9.31658 12.7071 9.70711L11.4142 11H15C15.5523 11 16 11.4477 16 12C16 12.5523 15.5523 13 15 13H11.4142L12.7071 14.2929C13.0976 14.6834 13.0976 15.3166 12.7071 15.7071C12.3166 16.0976 11.6834 16.0976 11.2929 15.7071L8.29289 12.7071C7.90237 12.3166 7.90237 11.6834 8.29289 11.2929Z" fill="currentColor"/>
</svg>

<svg width="24" height="24" fill="none" xmlns="http://www.w3.org/2000/svg"><path fill-rule="evenodd" clip-rule="evenodd" d="M4 12a8 8 0 1116 0 8 8 0 01-16 0zm8-10C6.477 2 2 6.477 2 12s4.477 10 10 10 10-4.477 10-10S17.523 2 12 2zm-3.707 9.293l3-3a1 1 0 111.414 1.414L11.414 11H15a1 1 0 110 2h-3.586l1.293 1.293a1 1 0 01-1.414 1.414l-3-3a1 1 0 010-1.414z" fill="currentColor"/></svg>
